lib/healthicons/icons/solid/symbols/cholera.svg

<svg fill="none" height="48" viewBox="0 0 48 48" width="48" xmlns="http://www.w3.org/2000/svg"><g fill="#333"><path d="m24 4h-14v8h15c.5523 0 1 .4477 1 1v1h8c0-5.52285-4.4772-10-10-10z"/><path d="m36 16h-12v4h12z"/><path clip-rule="evenodd" d="m38 36c0 4.4183-3.5817 8-8 8s-8-3.5817-8-8c0-7 8-14 8-14s8 7 8 14zm-11.9623-1.7821c-.5523.0066-1.0052-.4358-1.0118-.9881-.0208-1.7629 1.3915-3.2089 3.1544-3.2298.5523-.0065 1.0053.4359 1.0118.9882.0065.5522-.4359 1.0052-.9881 1.0117-.6585.0078-1.186.5479-1.1782 1.2063.0065.5523-.4359 1.0052-.9881 1.0117zm5.9623-3.2179c-.5523 0-1 .4477-1 1s.4477 1 1 1 1 .4477 1 1 .4477 1 1 1 1-.4477 1-1c0-1.6569-1.3431-3-3-3zm-2.4119 7.9269c.1184.5395-.2229 1.0728-.7624 1.1912-1.722.378-3.4245-.7115-3.8025-2.4336-.1184-.5394.2229-1.0727.7623-1.1912.5395-.1184 1.0728.2229 1.1912.7624.1412.6432.777 1.0501 1.4202.9089.5395-.1184 1.0728.2229 1.1912.7623zm4.4119.0731c.5523 0 1-.4477 1-1s-.4477-1-1-1-1 .4477-1 1 .4477 1 1 1zm-2-11c0 .5523-.4477 1-1 1s-1-.4477-1-1 .4477-1 1-1 1 .4477 1 1zm-2 8c.5523 0 1-.4477 1-1s-.4477-1-1-1-1 .4477-1 1 .4477 1 1 1z" fill-rule="evenodd"/></g></svg>

<svg width="48" height="48" viewBox="0 0 48 48" fill="none" xmlns="http://www.w3.org/2000/svg">
<path d="M24 4H10V12H25C25.5523 12 26 12.4477 26 13V14H34C34 8.47715 29.5228 4 24 4Z" fill="#333333"/>
<path d="M36 16H24V20H36V16Z" fill="#333333"/>
<path fill-rule="evenodd" clip-rule="evenodd" d="M38 36C38 40.4183 34.4183 44 30 44C25.5817 44 22 40.4183 22 36C22 29 30 22 30 22C30 22 38 29 38 36ZM26.0377 34.2179C25.4854 34.2245 25.0325 33.7821 25.0259 33.2298C25.0051 31.4669 26.4174 30.0209 28.1803 30C28.7326 29.9935 29.1856 30.4359 29.1921 30.9882C29.1986 31.5404 28.7562 31.9934 28.204 31.9999C27.5455 32.0077 27.018 32.5478 27.0258 33.2062C27.0323 33.7585 26.5899 34.2114 26.0377 34.2179ZM32 31C31.4477 31 31 31.4477 31 32C31 32.5523 31.4477 33 32 33C32.5523 33 33 33.4477 33 34C33 34.5523 33.4477 35 34 35C34.5523 35 35 34.5523 35 34C35 32.3431 33.6569 31 32 31ZM29.5881 38.9269C29.7065 39.4664 29.3652 39.9997 28.8257 40.1181C27.1037 40.4961 25.4012 39.4066 25.0232 37.6845C24.9048 37.1451 25.2461 36.6118 25.7855 36.4933C26.325 36.3749 26.8583 36.7162 26.9767 37.2557C27.1179 37.8989 27.7537 38.3058 28.3969 38.1646C28.9364 38.0462 29.4697 38.3875 29.5881 38.9269ZM34 39C34.5523 39 35 38.5523 35 38C35 37.4477 34.5523 37 34 37C33.4477 37 33 37.4477 33 38C33 38.5523 33.4477 39 34 39ZM32 28C32 28.5523 31.5523 29 31 29C30.4477 29 30 28.5523 30 28C30 27.4477 30.4477 27 31 27C31.5523 27 32 27.4477 32 28ZM30 36C30.5523 36 31 35.5523 31 35C31 34.4477 30.5523 34 30 34C29.4477 34 29 34.4477 29 35C29 35.5523 29.4477 36 30 36Z" fill="#333333"/>
</svg>
